Sardi Mono Papirus Dark/16x16/actions/texture.svg

<?xml version="1.0" encoding="UTF-8" standalone="no"?>
<svg xmlns="http://www.w3.org/2000/svg" width="16" height="16" viewBox="0 0 16 16">
 <defs>
  <style type="text/css" id="current-color-scheme">
   .ColorScheme-Text { color:#d3dae3; }
  </style>
 </defs>
 <path style="fill:currentColor;opacity:1" class="ColorScheme-Text" d="M 1 1 L 1 15 L 15 15 L 15 1 L 1 1 z M 3 3 L 13 3 L 13 5.0039062 L 3 5.0039062 L 3 3 z M 3 7.0039062 L 13 7.0039062 L 13 9.0039062 L 3 9.0039062 L 3 7.0039062 z M 3 11.003906 L 13 11.003906 L 13 13 L 3 13 L 3 11.003906 z"/>
</svg>

<?xml version="1.0" encoding="UTF-8" standalone="no"?>
<!-- Created with Inkscape (http://www.inkscape.org/) -->
<svg id="svg7384" xmlns:rdf="http://www.w3.org/1999/02/22-rdf-syntax-ns#" style="enable-background:new" xmlns="http://www.w3.org/2000/svg" xmlns:osb="http://www.openswatchbook.org/uri/2009/osb" height="16" width="16" version="1.1" xmlns:cc="http://creativecommons.org/ns#" xmlns:dc="http://purl.org/dc/elements/1.1/">
 <metadata id="metadata90">
  <rdf:RDF>
   <cc:Work rdf:about="">
    <dc:format>image/svg+xml</dc:format>
    <dc:type rdf:resource="http://purl.org/dc/dcmitype/StillImage"/>
    <dc:title>Paper Symbolic Icon Theme</dc:title>
   </cc:Work>
  </rdf:RDF>
 </metadata>
 <title id="title8473">Paper Symbolic Icon Theme</title>
 <g id="layer12" transform="translate(-265 19.003)">
  <path id="rect10753" opacity=".72" d="m1 1v2 2.0039 2 2 2.0001 1.996 2h2 10 2v-2-1.996-2.0001-2-2-2.0039-2h-2-10-2zm2 2h10v2.0039h-10v-2.0039zm0 4.0039h10v2h-10v-2zm0 4.0001h10v1.996h-10v-1.996z" transform="translate(265 -19.003)" fill="#fff"/>
 </g>
</svg>
